apps/scalable/kipi-expoblending.svg

<svg xmlns="http://www.w3.org/2000/svg" style="isolation:isolate" width="256" height="256"><defs><filter id="a" width="270.648" height="254.338" x="-7.32" y="2.95" filterUnits="userSpaceOnUse"><feGaussianBlur xmlns="http://www.w3.org/2000/svg" in="SourceGraphic" stdDeviation="4.294"/><feOffset xmlns="http://www.w3.org/2000/svg" dy="4" result="pf_100_offsetBlur"/><feFlood xmlns="http://www.w3.org/2000/svg" flood-opacity=".4"/><feComposite xmlns="http://www.w3.org/2000/svg" in2="pf_100_offsetBlur" operator="in" result="pf_100_dropShadow"/><feBlend xmlns="http://www.w3.org/2000/svg" in="SourceGraphic" in2="pf_100_dropShadow"/></filter></defs><g filter="url(#a)"><linearGradient id="b" x1=".233" x2=".933" y1="-.071" y2=".995" gradientTransform="matrix(244.648 0 0 228.338 5.676 11.947)" gradientUnits="userSpaceOnUse"><stop offset="0%" stop-color="#4e4e4e"/><stop offset="100%" stop-color="#2e0037"/></linearGradient><path fill="url(#b)" d="M165.685 11.947c74.055 0 84.639 10.557 84.639 84.544v59.251c0 73.986-10.584 84.543-84.639 84.543h-75.37c-74.055 0-84.639-10.557-84.639-84.543V96.491c0-73.987 10.584-84.544 84.639-84.544h75.37z"/></g><path fill="#FFF" d="M5.676 126.116v29.626c0 73.986 10.584 84.543 84.639 84.543h75.37c74.055 0 84.639-10.557 84.639-84.543v-29.626H5.676z" opacity=".2"/><path fill="#FFF" d="M128 11.947v228.338h37.685c74.055 0 84.639-10.557 84.639-84.543V96.491c0-73.987-10.584-84.544-84.639-84.544H128z" opacity=".2"/><path fill="#FFAF00" d="M41.251 195.902L28 129.649h79.504l13.211 66.253H41.251z"/><path fill="#6AF804" fill-rule="evenodd" d="M41.211 195.902l33.156-32.457 33.097-33.796 13.251 66.253H41.211z"/><path fill="#FFF" fill-opacity=".353" d="M41.251 195.902L28 129.649h79.504l13.211 66.253H41.251z"/><path fill="#FFAF00" d="M92.895 163.445L79.644 97.192h79.504l13.211 66.253H92.895z"/><path fill="#6AF804" fill-rule="evenodd" d="M92.855 163.445l33.156-32.457 33.097-33.796 13.251 66.253H92.855z"/><g><path fill="#FFAF00" d="M148.536 126.351l-13.251-66.253h79.504L228 126.351h-79.464z"/><path fill="#6AF804" fill-rule="evenodd" d="M148.496 126.351l33.156-32.457 33.097-33.796L228 126.351h-79.504z"/></g><path fill-opacity=".353" d="M148.536 126.351l-13.251-66.253h79.504L228 126.351h-79.464z"/><g opacity=".4"><linearGradient id="c" x1=".517" x2=".517" y2="1"><stop offset="0%" stop-color="#fff"/><stop offset="12.5%" stop-opacity=".098" stop-color="#fff"/><stop offset="92.5%" stop-opacity=".098"/><stop offset="100%" stop-opacity=".498"/></linearGradient><path fill="none" stroke="url(#c)" stroke-linecap="round" stroke-linejoin="round" stroke-width="4.077" d="M165.685 11.947c74.055 0 84.639 10.557 84.639 84.544v59.251c0 73.986-10.584 84.543-84.639 84.543h-75.37c-74.055 0-84.639-10.557-84.639-84.543V96.491c0-73.987 10.584-84.544 84.639-84.544h75.37z" vector-effect="non-scaling-stroke"/></g></svg>

<svg xmlns="http://www.w3.org/2000/svg" style="isolation:isolate" width="256" height="256" viewBox="0 0 256 256">
 <defs>
  <filter id="KGSUdfYbJZVdQjAuL8ni7fAkmR6UDvls" width="270.648" height="254.338" x="-7.32" y="2.95" filterUnits="userSpaceOnUse">
   <feGaussianBlur xmlns="http://www.w3.org/2000/svg" in="SourceGraphic" stdDeviation="4.294"/>
   <feOffset xmlns="http://www.w3.org/2000/svg" dx="0" dy="4" result="pf_100_offsetBlur"/>
   <feFlood xmlns="http://www.w3.org/2000/svg" flood-opacity=".4"/>
   <feComposite xmlns="http://www.w3.org/2000/svg" in2="pf_100_offsetBlur" operator="in" result="pf_100_dropShadow"/>
   <feBlend xmlns="http://www.w3.org/2000/svg" in="SourceGraphic" in2="pf_100_dropShadow" mode="normal"/>
  </filter>
 </defs>
 <g filter="url(#KGSUdfYbJZVdQjAuL8ni7fAkmR6UDvls)">
  <linearGradient id="_lgradient_234" x1=".233" x2=".933" y1="-.071" y2=".995" gradientTransform="matrix(244.648,0,0,228.338,5.676,11.947)" gradientUnits="userSpaceOnUse">
   <stop offset="0%" style="stop-color:rgb(78,78,78)"/>
   <stop offset="100%" style="stop-color:rgb(46,0,55)"/>
  </linearGradient>
  <path fill="url(#_lgradient_234)" d="M 165.685 11.947 C 239.74 11.947 250.324 22.504 250.324 96.491 L 250.324 155.742 C 250.324 229.728 239.74 240.285 165.685 240.285 L 90.315 240.285 C 16.26 240.285 5.676 229.728 5.676 155.742 L 5.676 96.491 C 5.676 22.504 16.26 11.947 90.315 11.947 L 165.685 11.947 Z"/>
 </g>
 <g opacity=".2">
  <path fill="#FFFFFF" d="M 5.676 126.116 L 5.676 155.742 C 5.676 229.728 16.26 240.285 90.315 240.285 L 165.685 240.285 C 239.74 240.285 250.324 229.728 250.324 155.742 L 250.324 126.116 L 5.676 126.116 Z"/>
 </g>
 <g opacity=".2">
  <path fill="#FFFFFF" d="M 128 11.947 L 128 240.285 L 165.685 240.285 C 239.74 240.285 250.324 229.728 250.324 155.742 L 250.324 96.491 C 250.324 22.504 239.74 11.947 165.685 11.947 L 128 11.947 Z"/>
 </g>
 <g>
  <g>
   <path fill="#FFAF00" d="M 41.251 195.902 L 28 129.649 L 107.504 129.649 L 120.715 195.902 L 41.251 195.902 Z"/>
   <path fill="#6AF804" fill-rule="evenodd" d="M 41.211 195.902 L 74.367 163.445 L 107.464 129.649 L 120.715 195.902 L 41.211 195.902 Z"/>
  </g>
  <path fill="#FFFFFF" fill-opacity=".353" d="M 41.251 195.902 L 28 129.649 L 107.504 129.649 L 120.715 195.902 L 41.251 195.902 Z"/>
  <g>
   <path fill="#FFAF00" d="M 92.895 163.445 L 79.644 97.192 L 159.148 97.192 L 172.359 163.445 L 92.895 163.445 Z"/>
   <path fill="#6AF804" fill-rule="evenodd" d="M 92.855 163.445 L 126.011 130.988 L 159.108 97.192 L 172.359 163.445 L 92.855 163.445 Z"/>
  </g>
  <g>
   <path fill="#FFAF00" d="M 148.536 126.351 L 135.285 60.098 L 214.789 60.098 L 228 126.351 L 148.536 126.351 Z"/>
   <path fill="#6AF804" fill-rule="evenodd" d="M 148.496 126.351 L 181.652 93.894 L 214.749 60.098 L 228 126.351 L 148.496 126.351 Z"/>
  </g>
  <path fill-opacity=".353" d="M 148.536 126.351 L 135.285 60.098 L 214.789 60.098 L 228 126.351 L 148.536 126.351 Z"/>
 </g>
 <g opacity=".4">
  <linearGradient id="_lgradient_235" x1=".517" x2=".517" y1="0" y2="1">
   <stop offset="0%" style="stop-color:rgb(255,255,255)"/>
   <stop offset="12.5%" stop-opacity=".098" style="stop-color:rgb(255,255,255)"/>
   <stop offset="92.5%" stop-opacity=".098" style="stop-color:rgb(0,0,0)"/>
   <stop offset="100%" stop-opacity=".498" style="stop-color:rgb(0,0,0)"/>
  </linearGradient>
  <path fill="none" stroke="url(#_lgradient_235)" stroke-linecap="round" stroke-linejoin="round" stroke-width="4.077" d="M 165.685 11.947 C 239.74 11.947 250.324 22.504 250.324 96.491 L 250.324 155.742 C 250.324 229.728 239.74 240.285 165.685 240.285 L 90.315 240.285 C 16.26 240.285 5.676 229.728 5.676 155.742 L 5.676 96.491 C 5.676 22.504 16.26 11.947 90.315 11.947 L 165.685 11.947 Z" vector-effect="non-scaling-stroke"/>
 </g>
</svg>
